X: 40
T: Ad te levavi
N: Derived from Mar2002-Ad_te_levavi.krn
C: Johannes Martini
%%abc-version 2.0
%%abcx-abcm2ps-target-version 5.9.1 (29 Sep 2008)
%%abc-creator hum2abc beta
%%abcx-conversion-date 2019/02/17 07:19:41
%%abc-edited-by Jesse Rodin
%%abc-edited-by Chris Gage 12-04-2013
%%abcx-initial-encoding-date 2014/10/05/
%%humdrum-veritas 3187839622
%%humdrum-veritas-data 1246582803
%%linebreak <none>
%%barnumbers 0
L: 1/4
M: 4/2
Q: 1/2=120
%%staves {1 2}
V: 1 clef=treble
V: 2 clef=bass
K: C
[V:1] F4F2F2 | 
[V:2] F,4A,2A,2 | 
[V:1] E4F4 | 
[V:2] G,4F,4 | 
[V:1] E2D3CC2- | 
[V:2] G,4F,2E,2 | 
[V:1] C2B,2C4 ||  
[V:2] D,4C,4 ||  
[V:1]  [K:F] F4F4 | 
[V:2]  [K:F] F,4A,4 | 
[V:1] F2F2F2F2 | 
[V:2] A,2A,2A,2A,2 | 
[V:1] F2F2G4 | 
[V:2] A,2A,2B,4 | 
[V:1] F4z4 | 
[V:2] F,4z4 | 
[V:1] F4F2F2 | 
[V:2] A,4A,2A,2 | 
[V:1] F4F2F2 | 
[V:2] A,4A,2A,2 | 
[V:1] F4E2FE | 
[V:2] A,4G,2F,2- | 
[V:1] DCC4=B,2 | 
[V:2] F,2E,2D,4 | 
[V:1] C8 ||  
[V:2] C,8 ||  
[V:1]  [K:C] F2F2F2F2 | 
[V:2]  [K:C] F,2F,2A,2A,2 | 
[V:1] F4F2E2 | 
[V:2] A,4A,2G,2 | 
[V:1] D2E2F2G2 | 
[V:2] F,2G,2A,2_B,2 | 
[V:1] A4A2G2- | 
[V:2] A,4C4 | 
[V:1] G2F4E2 | 
[V:2] _B,2A,2G,4 | 
[V:1] F4z4 | 
[V:2] F,4z4 | 
[V:1] F2F2F2F2 | 
[V:2] A,2A,2A,2A,2 | 
[V:1] F2F2F4 | 
[V:2] A,2A,2A,4 | 
[V:1] F2F2F2F2 | 
[V:2] A,2A,2A,2A,2 | 
[V:1] E2D4^C2 | 
[V:2] G,2F,2E,4 | 
[V:1] D4z2F2 | 
[V:2] D,4A,4 | 
[V:1] F2F2F4 | 
[V:2] A,2A,2A,4 | 
[V:1] E2D4C2- | 
[V:2] G,4F,2E,2 | 
[V:1] C2B,2C4 ||  
[V:2] D,4C,4 ||  
[V:1]  [K:F] F2F2F2F2 | 
[V:2]  [K:F] F,2F,2A,2A,2 | 
[V:1] F2F2F2F2 | 
[V:2] A,2A,2A,2A,2 | 
[V:1] F4F2F2 | 
[V:2] A,4A,2F,2 | 
[V:1] E2F2G4 | 
[V:2] G,2A,2B,4 | 
[V:1] F4z4 | 
[V:2] F,4z4 | 
[V:1] F2F2F4 | 
[V:2] A,2A,2A,4 | 
[V:1] F4F2F2 | 
[V:2] A,4A,2A,2 | 
[V:1] F2F2F4 | 
[V:2] A,2A,2A,4 | 
[V:1] F4E2F2 | 
[V:2] A,4G,2A,2 | 
[V:1] D2C4=B,2 | 
[V:2] F,2E,2D,4 | 
[V:1] C8 ||  
[V:2] C,8 ||  
[V:1]  [K:C] F2F2F4 | 
[V:2]  [K:C] F,2F,2A,4 | 
[V:1] F2F2F2F2 | 
[V:2] A,2A,2A,2A,2 | 
[V:1] F4E2D2 | 
[V:2] A,4G,2F,2 | 
[V:1] C2F4E2 | 
[V:2] E,2F,2G,4 | 
[V:1] F4z4 | 
[V:2] F,4z4 | 
[V:1] F2F2F2F2 | 
[V:2] A,2A,2A,2A,2 | 
[V:1] F2F2F2F2 | 
[V:2] A,2A,2A,2A,2 | 
[V:1] F4E2D2 | 
[V:2] A,4G,2F,2 | 
[V:1] E2F4ED | 
[V:2] G,2A,2F,4 | 
[V:1] C2D4C2- | 
[V:2] E,2D,2F,2E,2 | 
[V:1] C2B,2C4 ||  
[V:2] D,4C,4 ||  
[V:1]  [K:F] F4F2F2 | 
[V:2]  [K:F] F,4A,2A,2 | 
[V:1] F4E4 | 
[V:2] A,4G,4 | 
[V:1] F2G4F2- | 
[V:2] A,2B,4A,2 | 
[V:1] F2E2F4 | 
[V:2] G,4F,4 | 
[V:1] z4F4 | 
[V:2] z4A,4 | 
[V:1] F2F2F4 | 
[V:2] A,2A,2A,4 | 
[V:1] E2F4ED | 
[V:2] G,2A,2F,4 | 
[V:1] C2D4C2- | 
[V:2] E,2F,2G,2E,2 | 
[V:1] C2=B,2C4 ||  
[V:2] D,4C,4 ||  
[V:1]  [K:C] F2F2F2F2 | 
[V:2]  [K:C] F,2F,2A,2A,2 | 
[V:1] F2F2F2F2 | 
[V:2] A,2A,2A,2A,2 | 
[V:1] F4E2D2 | 
[V:2] A,4G,2F,2 | 
[V:1] C2F4E2 | 
[V:2] E,2F,2G,4 | 
[V:1] F4z4 | 
[V:2] F,4z4 | 
[V:1] F2F2F2F2 | 
[V:2] A,2A,2A,2A,2 | 
[V:1] F4E2D2 | 
[V:2] A,4G,2F,2 | 
[V:1] E2F4ED | 
[V:2] G,2A,2F,4 | 
[V:1] C2D3CC2- | 
[V:2] E,2D,2F,2E,2 | 
[V:1] C2B,2C4 |]  
[V:2] D,4C,4 |]  



